X: 23651
T: Limerick Tinker, The
R: jig
M: 6/8
K: Gminor
|:G2A BAG|AGF GFD|G2A Bdd|cAA F2D|
G2A BAG|AGF Gde|fag f2e|cAF F2A:|
|:ded dcA|d2G GAc|ded dcA|cAF FAc|
ded dcA|d2G Gde|fag f2d|cAF F2A:|
|:B2G A2G|d2G G2A|B2G A2G|cAF FGA|
BAG AGF|GFD FGA|fag fed|cAF F2A:|

